web/workspace/public/assets/icons/mail-alt.svg

<svg xmlns="http://www.w3.org/2000/svg" width="30" height="30" viewBox="0 0 30 30"><path d="M0 4v22h30V4H0zm28 20H2V6h26v18zM18 10H8v2h10v-2zm0 4H8v2h10v-2zm0 4H8v2h10v-2zm8-10h-6v8h6V8zm-2 6h-2v-4h2v4z"/></svg>

<?xml version="1.0" encoding="iso-8859-1"?>
<!-- Generator: Adobe Illustrator 14.0.0, SVG Export Plug-In . SVG Version: 6.00 Build 43363)  -->
<!DOCTYPE svg PUBLIC "-//W3C//DTD SVG 1.1//EN" "http://www.w3.org/Graphics/SVG/1.1/DTD/svg11.dtd">
<svg version="1.1" id="Layer_1" xmlns="http://www.w3.org/2000/svg" xmlns:xlink="http://www.w3.org/1999/xlink" x="0px" y="0px"
	 width="30px" height="30px" viewBox="0 0 30 30" style="enable-background:new 0 0 30 30;" xml:space="preserve">
<path d="M0,4v22h30V4H0z M28,24H2V6h26V24z M18,10H8v2h10V10z M18,14H8v2h10V14z M18,18H8v2h10V18z M26,8h-6v8h6V8z M24,14h-2v-4h2
	V14z"/>
</svg>
